X:2226
L:1/8
Q:1/4=95
M:3/4
K:E
 B, B,E |"E" G3 G FE |"A" C3 FEC |"E" B,3 EGE |"B" F2 z B,B,E |"E" G3 GFE |"A" C3 FEC | 
"E/B" B,E G2"B7" F2 |"E" E2 z || B,EG |"E" B3 BAG |"B7" A3 B,DF | A3 AGF |"E" G2 z BBG | 
"E" E3 GFE |"A" C3 FEC |"E/B" B,E G2"B7" F2 |"E" E2 z |]

